X:1
T:Title
L:1/8
Q:1/4=110
M:2/2
K:D
V:1 treble nm="Church Organ, Staff"
V:1
 d3 d B2 G2 | A2 F2 G2 E2 | D2 E2 F2 G2 | A3 B A4 | G2 B2 E2 F2 | G2 A2 G2 F2 | E2 F2 G2 A2 | %7
w: By~Alfred~Oake * * *|||||||
 F3 G A4 | ^G2 E2 A2 B2 | c2 e2 d2 c2 | B2 A2 ^G2 F2 | B4 E4 | A2 c2 e2 d2 | c3 B A2 ^G2 | %14
w: |||||||
 F2 d2 c2 B2 | A3 B A4 | d2 AG- G/ z/ G d2 | A A2 G FGAB- | BG F2- F/ z/ E3 | d2 AA- A/ z/ A d2 | %20
w: ||||||
 A A2 G FGAB- | Bc d2- d/ z/ d3 |] %22
w: ||

